X:982
T:Devil's Elbow, The
C:James Scott Skinner
N:Nigel Gatherer's version
Z:Nigel Gatherer
L:1/8
M:4/4
K:D
d2 cd Bd A2 | d2 cd BE E2 | d2 cd BdAF | GBAG FD D :|
e | fdAF GBeG | FAdf eE E2 | fdAF GBed | cAag fd d :|
<end>
<start>
